X: 2
T: Scotch Mary
R: reel
M: 4/4
L: 1/8
K: Ador
cded cded|BEEF G2AB|cded cded|cABG A2AB|cded cded|BEEF G2AB|cdeg f2ed|cABG A2AB||


Tune 96	Setting 29434

